X:1
T:Maria Marten
Q:1/4=60
M:2/4
L:1/16
K:F#m
(ce)|e2c2 (cB)A2|B2B2 c3B|c2F2 F2F2|E6A2|F2F2 (FE)(FG)|A2A2 B2AB|c3B B2B2|F6|]
w:Come_ all you bold_ young thought-less men A warn-ing take by me And think of my_ un_hap-py fate To be hanged up-on the tree